X: 29301
T: New Shop Dance
R: reel
M: 4/4
K: Dmajor
|:B|ADFD ADFD|ADFD EDEF|ADFD ADFD|GBAG FDD:|
|:c|defd BcdB|ABAF GEEc|defd BcdB|ABAG FDD:|
|:f|adfd adfd|adfd edef|adfd adfd|dfeg fdd:|
g|(3fga ef deBd|ABAF GEEg|(3fga ef deBd|ABAG FDDG|
(3fga ef deBd|ABAF GEEg|FDGE AFGE|cAdA FD D||

